images_sukapura_svg/cmd/32/setoptimalcolumnwidth.svg

<svg viewBox="0 0 32 32" xmlns="http://www.w3.org/2000/svg" xmlns:xlink="http://www.w3.org/1999/xlink"><linearGradient id="a" gradientTransform="translate(0 -16.001062)" gradientUnits="userSpaceOnUse" x1="22.009514" x2="10.009515" xlink:href="#b" y1="6.001083" y2="6.001083"/><linearGradient id="b" gradientTransform="translate(75 -7)" gradientUnits="userSpaceOnUse" x1="14" x2="13.79661" y1="22" y2="2.135593"><stop offset="0" stop-color="#0040dd"/><stop offset="1" stop-color="#0a84ff"/></linearGradient><linearGradient id="c" gradientTransform="matrix(1 0 0 -1 0 17.000042)" gradientUnits="userSpaceOnUse" x1="22.009514" x2="10.009515" xlink:href="#b" y1="4.000021" y2="4.000021"/><g transform="matrix(0 1 1 0 15.999979 7.990485)"><path d="m16.023438 15.000042a.99869039.99869039 0 0 1 -.720704-.292969l-5-4.9999998a.99869039.99869039 0 0 1 .707032-1.7050781h2.990234v-2.0019531c0-.554.446-1 1-1h2c.554 0 1 .446 1 1v2.0019531h3.009766a.99869039.99869039 0 0 1 .707031 1.7050781l-5 4.9999998a.99869039.99869039 0 0 1 -.693359.292969z" fill="url(#c)"/><path d="m16.023438-14.001062a.99869039.99869039 0 0 0 -.720704.292969l-5 4.9999999a.99869039.99869039 0 0 0 .707032 1.7050785h2.990234v2.001953c0 .554.446 1 1 1h2c.554 0 1-.446 1-1v-2.001953h3.009766a.99869039.99869039 0 0 0 .707031-1.7050785l-5-4.9999999a.99869039.99869039 0 0 0 -.693359-.292969z" fill="url(#a)"/></g><path d="m13 4v24h7v-24z" fill="#fff"/><path d="m13 3v6 4 1 4 1 4 1 4 1h7v-1-4-1-4-1-4-1-4-6zm1 1h5v4h-5zm0 5h5v4h-5zm0 5h5v4h-5zm0 5h5v4h-5zm0 5h5v4h-5z" fill="#69696e"/><path d="m14 8v1h5v-1zm0 5v1h5v-1zm0 5v1h5v-1zm0 5v1h5v-1z" fill="#bababa"/></svg>

<?xml version="1.0" encoding="UTF-8" standalone="no"?>
<svg
   xmlns:dc="http://purl.org/dc/elements/1.1/"
   xmlns:cc="http://creativecommons.org/ns#"
   xmlns:rdf="http://www.w3.org/1999/02/22-rdf-syntax-ns#"
   xmlns:svg="http://www.w3.org/2000/svg"
   xmlns="http://www.w3.org/2000/svg"
   xmlns:xlink="http://www.w3.org/1999/xlink"
   xmlns:sodipodi="http://sodipodi.sourceforge.net/DTD/sodipodi-0.dtd"
   xmlns:inkscape="http://www.inkscape.org/namespaces/inkscape"
   viewBox="0 0 32 32"
   version="1.1"
   id="svg16"
   sodipodi:docname="setoptimalcolumnwidth.svg"
   inkscape:version="0.92.3 (unknown)">
  <metadata
     id="metadata22">
    <rdf:RDF>
      <cc:Work
         rdf:about="">
        <dc:format>image/svg+xml</dc:format>
        <dc:type
           rdf:resource="http://purl.org/dc/dcmitype/StillImage" />
        <dc:title />
      </cc:Work>
    </rdf:RDF>
  </metadata>
  <defs
     id="defs20">
    <linearGradient
       inkscape:collect="always"
       xlink:href="#a-367"
       id="linearGradient894"
       gradientUnits="userSpaceOnUse"
       x1="22.009514"
       y1="6.0010829"
       x2="10.009515"
       y2="6.0010829"
       gradientTransform="translate(0,-16.001062)" />
    <linearGradient
       gradientTransform="translate(75,-7)"
       id="a-367"
       gradientUnits="userSpaceOnUse"
       x1="14"
       x2="13.79661"
       y1="22"
       y2="2.1355929">
      <stop
         offset="0"
         stop-color="#0040dd"
         id="stop2206" />
      <stop
         offset="1"
         stop-color="#0a84ff"
         id="stop2208" />
    </linearGradient>
    <linearGradient
       inkscape:collect="always"
       xlink:href="#a-367"
       id="linearGradient890"
       x1="22.009514"
       y1="4.000021"
       x2="10.009515"
       y2="4.000021"
       gradientUnits="userSpaceOnUse"
       gradientTransform="matrix(1,0,0,-1,0,17.000042)" />
  </defs>
  <sodipodi:namedview
     pagecolor="#ffffff"
     bordercolor="#666666"
     borderopacity="1"
     objecttolerance="10"
     gridtolerance="10"
     guidetolerance="10"
     inkscape:pageopacity="0"
     inkscape:pageshadow="2"
     inkscape:window-width="1366"
     inkscape:window-height="706"
     id="namedview18"
     showgrid="true"
     inkscape:zoom="7.375"
     inkscape:cx="19.729727"
     inkscape:cy="11.395822"
     inkscape:window-x="0"
     inkscape:window-y="0"
     inkscape:window-maximized="1"
     inkscape:current-layer="svg16">
    <inkscape:grid
       type="xygrid"
       id="grid829"
       spacingx="0.5"
       spacingy="0.5"
       empspacing="2" />
  </sodipodi:namedview>
  <g
     id="g851">
    <g
       id="g16"
       transform="matrix(0,1,1,0,15.999979,7.9904854)">
      <path
         id="path14"
         d="m 16.023438,15.000042 a 0.99869039,0.99869039 0 0 1 -0.720704,-0.292969 l -5,-4.9999998 A 0.99869039,0.99869039 0 0 1 11.009766,8.0019951 H 14 V 6.000042 c 0,-0.554 0.446,-1 1,-1 h 2 c 0.554,0 1,0.446 1,1 v 2.0019531 h 3.009766 a 0.99869039,0.99869039 0 0 1 0.707031,1.7050781 l -5,4.9999998 a 0.99869039,0.99869039 0 0 1 -0.693359,0.292969 z"
         style="fill:url(#linearGradient890);fill-opacity:1;stroke:none;stroke-width:1.99996603;stroke-linecap:round;stroke-linejoin:round"
         inkscape:connector-curvature="0" />
      <path
         inkscape:connector-curvature="0"
         style="fill:url(#linearGradient894);fill-opacity:1;stroke:none;stroke-width:1.99996603;stroke-linecap:round;stroke-linejoin:round"
         d="m 16.023438,-14.001062 a 0.99869039,0.99869039 0 0 0 -0.720704,0.292969 l -5,4.9999999 a 0.99869039,0.99869039 0 0 0 0.707032,1.7050785 H 14 v 2.001953 c 0,0.554 0.446,1 1,1 h 2 c 0.554,0 1,-0.446 1,-1 v -2.001953 h 3.009766 a 0.99869039,0.99869039 0 0 0 0.707031,-1.7050785 l -5,-4.9999999 a 0.99869039,0.99869039 0 0 0 -0.693359,-0.292969 z"
         id="path892" />
    </g>
    <path
       id="path2"
       fill="#fff"
       d="m13 4v24h7v-24z" />
    <path
       style="fill:#69696e;fill-opacity:1"
       id="path4"
       d="M 13 3 L 13 9 L 13 13 L 13 14 L 13 18 L 13 19 L 13 23 L 13 24 L 13 28 L 13 29 L 20 29 L 20 28 L 20 24 L 20 23 L 20 19 L 20 18 L 20 14 L 20 13 L 20 9 L 20 3 L 13 3 z M 14 4 L 19 4 L 19 8 L 14 8 L 14 4 z M 14 9 L 19 9 L 19 13 L 14 13 L 14 9 z M 14 14 L 19 14 L 19 18 L 14 18 L 14 14 z M 14 19 L 19 19 L 19 23 L 14 23 L 14 19 z M 14 24 L 19 24 L 19 28 L 14 28 L 14 24 z " />
    <path
       id="rect834"
       d="M 14 8 L 14 9 L 19 9 L 19 8 L 14 8 z M 14 13 L 14 14 L 19 14 L 19 13 L 14 13 z M 14 18 L 14 19 L 19 19 L 19 18 L 14 18 z M 14 23 L 14 24 L 19 24 L 19 23 L 14 23 z "
       style="fill:#bababa;fill-opacity:1" />
  </g>
</svg>
